X:136
T:The High Caul Cap
B:Terry "Cuz" Teahan "Sliabh Luachra on Parade" 1980
Z:Patrick Cavanagh
M:4/4
L:1/8
R:Set Dance
K:G
D2 | G2G2 A2Bd | efge dBAG | B2A2 A2GA | B2A2 A2D2 | G2GA B2d2 | 
efge dBAB | G2E2 E2DE | G2E2 E2 :|| d2 | efge d2g2 | efge dBAG | 
B2A2 A2GA | B2A2 A2d2 | efge d2g2 | efge dBAB | G2E2 E2DE | 
G2E2 E2 :|| D2 | G2A2 B2B2 | c2c2 B2A2 | B2A2 A2GA | B2A2 A2D2 | 
G2A2 B2B2 | c2c2 B2A2 | G2E2 E2DE | G2E2 E2 :|| g2 | fefa g2e2 | 
f2ed dcAG | A2g2 g2fg | a2g2 g2e2 | fefa g2e2 | f2ed dcAG | 
F2D2 D2AG | F2D2 D2 :|| D2 | GABG ABcA | BcdB cBAG | B2A2 A2GA | 
G2A2 A2G2 | GABG ABcA | BcdB cBAB | G2E2 E2DE | G2E2 E2 :|| A2
|: A2B2 d2f2 | A2B2 d2f2 | e2B2 B2AB | e2B2 B4 | A2B2 d2f2 | A2B2 d2f2 | e2B2 c2Ac | e2d2 d4 :| 
|: a2f2 d2f2 | a2f2 f4 | e2B2 B2AB | e2B2 B4 | a2f2 d2f2 | a2f2 f4 | e2B2 c2Ac | e2d2 d4 :|| 

